X:1
T: Happy We'll Be
C:
R:Jig
Q:180
K:G
M:6/8
L:1/16
|:D2|D4G2 G2B2d2|g2f2e2 d4c2|B2d2g2 d2B2G2|F4A2 A4B2|
D4G2 G2B2d2|g2f2e2 d4c2|B2d2B2 c2A2G2|G6G4:|
|:c2|B2d2g2 d2B2G2|B2d2g2 d4c2|B2d2g2 d2B2G2|F4A2A4c2|
B2d2g2 d2B2G2|B2d2g2 d4c2|B2d2B2 c2A2F2|G6G4:|
